COLOR/action 16/16/system-upgrade.svg

<svg height="16" width="16" xmlns="http://www.w3.org/2000/svg" xmlns:xlink="http://www.w3.org/1999/xlink"><filter id="a" color-interpolation-filters="sRGB" height="1.019385" width="1.0315" x="-.01575" y="-.009692"><feGaussianBlur stdDeviation=".52499999"/></filter><linearGradient id="b" gradientUnits="userSpaceOnUse" x1="-11.42859272" x2="-4.57145" y1="-15.99999692" y2=".00000276"><stop offset="0" stop-color="#319741"/><stop offset="1" stop-color="#0e8420"/></linearGradient><circle cx="-8" cy="-8" fill="url(#b)" r="8" transform="scale(-1)"/><g enable-background="new" transform="matrix(.07142857 0 0 .07142857 -2.767845 -3.794766)"><path d="m152.47725 90.999985c21.38251 32.907525 32.34331 67.535295 39.52275 83.126745h-24.25062v46.87325h-30.54426v-46.87325h-25.20512c7.17637-15.59051 19.09474-50.21891 40.47725-83.126745z" filter="url(#a)" opacity=".1"/><path d="m152.47725 90.000005c21.38251 32.907525 32.34331 67.535295 39.52275 83.126745h-24.25062v46.87325h-30.54426v-46.87325h-25.20512c7.17637-15.59051 19.09474-50.21891 40.47725-83.126745z" fill="#f7f7f7"/></g><path d="m8 0a8 8 0 0 0 -8 8 8 8 0 0 0 .00976563.2929688 8 8 0 0 1 7.99023437-7.7929688 8 8 0 0 1 7.990234 7.7070312 8 8 0 0 0 .009766-.2070312 8 8 0 0 0 -8-8z" fill="#fff" opacity=".3"/><path d="m8.0000195 16a8 8 0 0 0 7.9999995-8.0000004 8 8 0 0 0 -.0098-.292968 8 8 0 0 1 -7.9902345 7.7929684 8 8 0 0 1 -7.990234-7.7070314 8 8 0 0 0 -.00977.207031 8 8 0 0 0 8 8.0000004z" opacity=".2"/></svg>

<?xml version="1.0" encoding="UTF-8" standalone="no"?>
<svg
   xmlns:dc="http://purl.org/dc/elements/1.1/"
   xmlns:cc="http://creativecommons.org/ns#"
   xmlns:rdf="http://www.w3.org/1999/02/22-rdf-syntax-ns#"
   xmlns:svg="http://www.w3.org/2000/svg"
   xmlns="http://www.w3.org/2000/svg"
   xmlns:xlink="http://www.w3.org/1999/xlink"
   xmlns:sodipodi="http://sodipodi.sourceforge.net/DTD/sodipodi-0.dtd"
   xmlns:inkscape="http://www.inkscape.org/namespaces/inkscape"
   height="16"
   width="16"
   version="1.1"
   id="svg10"
   sodipodi:docname="system-upgrade.svg"
   inkscape:version="0.92.4 (5da689c313, 2019-01-14)">
  <metadata
     id="metadata16">
    <rdf:RDF>
      <cc:Work
         rdf:about="">
        <dc:format>image/svg+xml</dc:format>
        <dc:type
           rdf:resource="http://purl.org/dc/dcmitype/StillImage" />
      </cc:Work>
    </rdf:RDF>
  </metadata>
  <defs
     id="defs14">
    <filter
       inkscape:collect="always"
       style="color-interpolation-filters:sRGB"
       id="filter10875"
       x="-0.01575"
       width="1.0315"
       y="-0.0096923076"
       height="1.0193846">
      <feGaussianBlur
         inkscape:collect="always"
         stdDeviation="0.52499999"
         id="feGaussianBlur10877" />
    </filter>
    <linearGradient
       inkscape:collect="always"
       xlink:href="#linearGradient10935"
       id="linearGradient11065"
       x1="104"
       y1="44"
       x2="200"
       y2="268"
       gradientUnits="userSpaceOnUse"
       gradientTransform="matrix(0.07142857,0,0,0.07142857,-18.857164,-19.142854)" />
    <linearGradient
       id="linearGradient10935">
      <stop
         id="stop10931"
         offset="0"
         style="stop-color:#319741;stop-opacity:1" />
      <stop
         id="stop10933"
         offset="1"
         style="stop-color:#0e8420;stop-opacity:1" />
    </linearGradient>
  </defs>
  <sodipodi:namedview
     pagecolor="#ffffff"
     bordercolor="#666666"
     borderopacity="1"
     objecttolerance="10"
     gridtolerance="10"
     guidetolerance="10"
     inkscape:pageopacity="0"
     inkscape:pageshadow="2"
     inkscape:window-width="1920"
     inkscape:window-height="1016"
     id="namedview12"
     showgrid="false"
     inkscape:zoom="14.75"
     inkscape:cx="8"
     inkscape:cy="8"
     inkscape:window-x="0"
     inkscape:window-y="27"
     inkscape:window-maximized="1"
     inkscape:current-layer="svg10" />
  <circle
     style="display:inline;opacity:1;fill:url(#linearGradient11065);fill-opacity:1;stroke:none;stroke-width:0.07142857;stroke-linecap:round;stroke-linejoin:round;stroke-miterlimit:4;stroke-dasharray:none;stroke-opacity:1;enable-background:new"
     id="path11042"
     r="8"
     cy="-8"
     cx="-8"
     transform="scale(-1)" />
  <g
     style="display:inline;enable-background:new"
     id="g10881"
     transform="matrix(0.07142857,0,0,0.07142857,-2.7678452,-3.7947664)">
    <path
       id="path913"
       d="M 152.47725,90.999985 C 173.85976,123.90751 184.82056,158.53528 192,174.12673 h -24.25062 v 46.87325 H 137.20512 V 174.12673 H 112 c 7.17637,-15.59051 19.09474,-50.21891 40.47725,-83.126745 z"
       style="color:#000000;font-style:normal;font-variant:normal;font-weight:normal;font-stretch:normal;font-size:medium;line-height:normal;font-family:sans-serif;font-variant-ligatures:normal;font-variant-position:normal;font-variant-caps:normal;font-variant-numeric:normal;font-variant-alternates:normal;font-feature-settings:normal;text-indent:0;text-align:start;text-decoration:none;text-decoration-line:none;text-decoration-style:solid;text-decoration-color:#000000;letter-spacing:normal;word-spacing:normal;text-transform:none;writing-mode:lr-tb;direction:ltr;text-orientation:mixed;dominant-baseline:auto;baseline-shift:baseline;text-anchor:start;white-space:normal;shape-padding:0;clip-rule:nonzero;display:inline;overflow:visible;visibility:visible;opacity:0.1;isolation:auto;mix-blend-mode:normal;color-interpolation:sRGB;color-interpolation-filters:linearRGB;solid-color:#000000;solid-opacity:1;vector-effect:none;fill:#000000;fill-opacity:1;fill-rule:nonzero;stroke:none;stroke-width:1.54472721;stroke-linecap:butt;stroke-linejoin:miter;stroke-miterlimit:4;stroke-dasharray:none;stroke-dashoffset:0;stroke-opacity:1;marker:none;filter:url(#filter10875);color-rendering:auto;image-rendering:auto;shape-rendering:auto;text-rendering:auto;enable-background:accumulate"
       inkscape:connector-curvature="0"
       sodipodi:nodetypes="cccccccc" />
    <path
       sodipodi:nodetypes="cccccccc"
       inkscape:connector-curvature="0"
       style="color:#000000;font-style:normal;font-variant:normal;font-weight:normal;font-stretch:normal;font-size:medium;line-height:normal;font-family:sans-serif;font-variant-ligatures:normal;font-variant-position:normal;font-variant-caps:normal;font-variant-numeric:normal;font-variant-alternates:normal;font-feature-settings:normal;text-indent:0;text-align:start;text-decoration:none;text-decoration-line:none;text-decoration-style:solid;text-decoration-color:#000000;letter-spacing:normal;word-spacing:normal;text-transform:none;writing-mode:lr-tb;direction:ltr;text-orientation:mixed;dominant-baseline:auto;baseline-shift:baseline;text-anchor:start;white-space:normal;shape-padding:0;clip-rule:nonzero;display:inline;overflow:visible;visibility:visible;opacity:1;isolation:auto;mix-blend-mode:normal;color-interpolation:sRGB;color-interpolation-filters:linearRGB;solid-color:#000000;solid-opacity:1;vector-effect:none;fill:#f7f7f7;fill-opacity:1;fill-rule:nonzero;stroke:none;stroke-width:1.54472721;stroke-linecap:butt;stroke-linejoin:miter;stroke-miterlimit:4;stroke-dasharray:none;stroke-dashoffset:0;stroke-opacity:1;marker:none;color-rendering:auto;image-rendering:auto;shape-rendering:auto;text-rendering:auto;enable-background:accumulate"
       d="M 152.47725,90.000005 C 173.85976,122.90753 184.82056,157.5353 192,173.12675 H 167.74938 V 220 H 137.20512 V 173.12675 H 112 c 7.17637,-15.59051 19.09474,-50.21891 40.47725,-83.126745 z"
       id="path10681" />
  </g>
  <path
     style="display:inline;opacity:0.3;fill:#ffffff;fill-opacity:1;stroke:none;stroke-width:0.07142857;stroke-linecap:round;stroke-linejoin:round;stroke-miterlimit:4;stroke-dasharray:none;stroke-opacity:1;enable-background:new"
     d="M 8 0 A 8 8 0 0 0 0 8 A 8 8 0 0 0 0.009765625 8.2929688 A 8 8 0 0 1 8 0.5 A 8 8 0 0 1 15.990234 8.2070312 A 8 8 0 0 0 16 8 A 8 8 0 0 0 8 0 z "
     id="circle847" />
  <path
     id="path856"
     d="M 8.0000195,16 A 8,8 0 0 0 16.000019,7.9999996 8,8 0 0 0 15.990219,7.7070316 8,8 0 0 1 7.9999845,15.5 8,8 0 0 1 0.0097505,7.7929686 a 8,8 0 0 0 -0.00977,0.207031 8,8 0 0 0 8,8.0000004 z"
     style="display:inline;opacity:0.2;fill:#000000;fill-opacity:1;stroke:none;stroke-width:0.07142857;stroke-linecap:round;stroke-linejoin:round;stroke-miterlimit:4;stroke-dasharray:none;stroke-opacity:1;enable-background:new"
     inkscape:connector-curvature="0" />
</svg>
